**kern
*part1
*staff1
*clefC3
*k[f#c#]
1%0r
=2
1%0r
=3
1%0r
=4
1%0r
=5
1%0r
=6
1%0r
=7
1%0r
=8
1%0r
=9
1%0r
=10
1%0r
=11
4a
4dd
4a
8r
8A
=12
[4A
16AL]
32B
32c#y
32d
32e
32f#y
32gJ
2a
=13
[4d
16dL]
32e
32f#y
32g
32a
32b
32cc#yJ
8ddL
16cc#y
16b
8aJ
8b
=14
8qa
2g
4f#y
4r
=15
*-
